!!!COM: Bach, Johann Sebastian
!!!CDT: 1685/03/31-1750/07/28
!!!OTL: Sinfonia 6 in E major
!!!SCA: BWV 792
**kern	**kern	**kern
*staff3	*staff2	*staff1
*I"	*I"	*I"
*clefF4	*clefG2	*clefG2
*k[f#c#g#d#]	*k[f#c#g#d#]	*k[f#c#g#d#]
*E:	*E:	*E:
*M9/8	*M9/8	*M9/8
*MM180	*MM180	*MM180
=1	=1	=1
2.e	8eL	8%9r
.	8f#	.
.	8g#J	.
.	8aL	.
.	8b	.
.	8cc#J	.
4.d#	8bL	.
.	8cc#	.
.	8aJ	.
=2	=2	=2
4.e	2.g#	8bL
.	.	8cc#
.	.	8dd#J
4.c#	.	8eeL
.	.	8ff#
.	.	8gg#J
4.f#	4.a#X	8ff#L
.	.	8gg#
.	.	8eeJ
=3	=3	=3
8BL	2.b	4.dd#
8c#	.	.
8d#J	.	.
8eL	.	2.cc#
8f#	.	.
8g#J	.	.
8f#L	[4.a	.
8g#	.	.
8eJ	.	.
!!LO:LB:g=original
=4	=4	=4
8d#L	4.a]	2.b
8e	.	.
8f#J	.	.
8eL	2.g#	.
8f#	.	.
8d#J	.	.
8c#L	.	[4.a
8d#	.	.
8eJ	.	.
=5	=5	=5
8d#L	2.f#	4.a]
8e	.	.
8c#J	.	.
8BL	.	2.g#
8c#	.	.
8d#J	.	.
8c#L	[4.e	.
8d#	.	.
8BJ	.	.
=6	=6	=6
4.A	8eL]	2.cc#
.	8f#	.
.	8g#J	.
4.F#	8aL	.
.	8b	.
.	8cc#J	.
4.B	8bL	4.dd#
.	8cc#	.
.	8aJ	.
=7	=7	=7
8EL	4.g#	2.ee
8F#	.	.
8G#J	.	.
8AL	2.f#	.
8B	.	.
8c#J	.	.
8BL	.	[4.dd#
8c#	.	.
8AJ	.	.
!!LO:LB:g=original
=8	=8	=8
8G#L	2.e	4.dd#]
8A	.	.
8BJ	.	.
8AL	.	2.cc#
8B	.	.
8G#J	.	.
8F#L	[4.d#	.
8G#	.	.
8AJ	.	.
=9	=9	=9
4.G#	8d#L]	4.b#X
.	8e	.
.	8f#J	.
4.E	8g#L	[2.cc#
.	8a	.
.	8bnJ	.
4.F#	8aL	.
.	8b	.
.	8g#J	.
=10	=10	=10
2.D#	4.f#	8cc#L]
.	.	8dd#
.	.	8eeJ
.	2.B#X	8ff#L
.	.	8gg#
.	.	8aaJ
4.G#	.	8gg#L
.	.	8aa
.	.	8ff#J
=11	=11	=11
4.C#	4.c#	8eeL
.	.	8gg#
.	.	8dd#J
4r	4r	8eeL
.	.	8gg#
8r	8r	8b#XJ
4.E	4r	8cc#
.	.	[4ee
.	8g#	.
!!LO:LB:g=original
=12	=12	=12
4.F#	8a#XL	4.ee]
.	8cc#	.
.	8g#J	.
4.r	8a#L	4.r
.	8cc#	.
.	8e#XJ	.
4r	8f#	[4.een
.	[4a#	.
8c#	.	.
=13	=13	=13
8d#L	4.a#]	4.ee]
8f#	.	.
8c#J	.	.
8d#L	4.b	[2.dd#
8f#	.	.
8A#XJ	.	.
8BL	4.f#	.
8d#	.	.
8F#J	.	.
=14	=14	=14
8G#L	2.e	4.dd#]
8B	.	.
8F#J	.	.
8G#L	.	4.cc#
8B	.	.
8D#J	.	.
8EL	4.d#	[4.b
8G#	.	.
8BBJ	.	.
=15	=15	=15
8C#L	[2.e	4.b]
8E	.	.
8BBJ	.	.
8C#L	.	4.a#X
8E	.	.
8GG#J	.	.
8AA#XL	4.e_	[4.cc#
8C#	.	.
8EEJ	.	.
!!LO:LB:g=original
=16	=16	=16
4.FF#	8eL]	2.cc#]
.	8f#	.
.	8g#J	.
4.E	8a#XL	.
.	8b	.
.	8cc#J	.
4.r	8bL	4.r
.	8cc#	.
.	8a#J	.
=17	=17	=17
4.D#	2.b	8bbL
.	.	8aa#X
.	.	8gg#J
4.E	.	8ff#L
.	.	8ee
.	.	8dd#J
4.F#	4.a#X	8eeL
.	.	8cc#
.	.	8dd#J
=18	=18	=18
8BBL	4.b	4.bM
8C#	.	.
8D#J	.	.
8EL	4.r	4.r
8F#	.	.
8G#J	.	.
8F#L	4.r	4.r
8G#	.	.
8EJ	.	.
=19	=19	=19
8D#L	8BL	8%9r
8E	8c#	.
8F#J	8d#J	.
8G#L	8eL	.
8F#	8f#	.
8EJ	8g#J	.
[4.A	8f#L	.
.	8g#	.
.	8eJ	.
!!LO:LB:g=original
=20	=20	=20
4.A]	4.d#	8f#L
.	.	8g#
.	.	8aJ
4.G#	2.e#X	8bL
.	.	8cc#
.	.	8ddnJ
4.c#	.	8cc#L
.	.	8dd
.	.	8bJ
=21	=21	=21
4.F#	2.f#	8aL
.	.	8b
.	.	8cc#J
2.B	.	8ddnL
.	.	8ee
.	.	8ff#J
.	4.g#	8eeL
.	.	8ff#
.	.	8ddJ
=22	=22	=22
8AL	4.a	8cc#L
8G#	.	8dd#X
8F#J	.	8eeJ
8EL	4.r	8ff#L
8D#	.	8gg#
8C#J	.	8aaJ
8BB#XL	4.r	8gg#L
8C#	.	8aa
8D#J	.	8ff#J
=23	=23	=23
4.C#	8cc#L	[2.ee
.	8b	.
.	8aJ	.
4.r	8g#L	.
.	8f#	.
.	8eJ	.
4.r	8f#L	4.ee_
.	8e	.
.	8g#J	.
!!LO:LB:g=original
=24	=24	=24
4.F#	[2.a	8eeL]
.	.	8ee
.	.	8dd#J
4.r	.	8cc#L
.	.	8b
.	.	8aJ
4.r	4.a_	8bL
.	.	8a
.	.	8cc#J
=25	=25	=25
8BL	2.a_	[4.dd#
8A	.	.
8G#J	.	.
8F#L	.	8dd#L]
8E	.	8ee
8D#J	.	8ff#J
8EL	4.a_	8gg#L
8D#	.	8ff#
8F#J	.	8aaJ
=26	=26	=26
[2.G#	8aL]	[2.b
.	8g#	.
.	8f#J	.
.	8eL	.
.	8dn	.
.	8c#J	.
4.G#_	8dL	4.b]
.	8B	.
.	8c#J	.
=27	=27	=27
4.G#]	8c#L	2.a
.	8d#X	.
.	8eJ	.
2.F#	8d#L	.
.	8e	.
.	8c#J	.
.	8BL	[4.g#
.	8c#	.
.	8d#J	.
*	*clefF4	*
!!LO:LB:g=original
=28	=28	=28
2.E	8c#L	4.g#]
.	8d#	.
.	8BJ	.
.	8AL	[2.f#
.	8B	.
.	8c#J	.
4.D#	8BL	.
.	8c#	.
.	8AJ	.
=29	=29	=29
8EL	2.G#	4.f#]
8D#	.	.
8C#J	.	.
8BBL	.	4.e
8AA	.	.
8GG#J	.	.
8AAL	[4.F#	[4.d#
8GG#	.	.
8BBJ	.	.
=30	=30	=30
4.BBB#X	8F#L]	2.d#_
.	8D#	.
.	8EJ	.
4.r	8F#L	.
.	8G#	.
.	8AJ	.
4.r	8G#L	4.d#_
.	8A	.
.	8F#J	.
=31	=31	=31
4.CC#	4.E	8d#L]
.	.	8c#
.	.	8d#J
*	*clefG2	*
4.r	[2.c#	8eL
.	.	8f#
.	.	8g#J
4.r	.	8f#L
.	.	8g#
.	.	8eJ
!!LO:LB:g=original
=32	=32	=32
4.FF#	8c#L]	[2.a
.	8A	.
.	8BJ	.
4.r	8c#L	.
.	8d#	.
.	8eJ	.
4.r	8d#L	4.a_
.	8e	.
.	8c#J	.
=33	=33	=33
4.DD#	4.B	8aL]
.	.	8f#
.	.	8g#J
4.r	[2.f#	8aL
.	.	8b
.	.	8cc#J
4.r	.	8bL
.	.	8cc#
.	.	8aJ
=34	=34	=34
4.AA;	4.f#]	4.dd#;
4.r	4.r	4.r
4.r	4.r	4.r
*	*clefF4	*
=35	=35	=35
4.GG#	8EL	8eeL
.	8F#	8dd#
.	8G#J	8cc#J
4.r	8AL	8bL
.	8B	8a
.	8c#J	8g#J
4.r	8BL	8aL
.	8c#	8g#
.	8AJ	8bJ
=36	=36	=36
8AA#XL	4.Gn	4.ee
8C#	.	.
8D#J	.	.
8EL	4.r	4.r
8F#	.	.
8GnJ	.	.
8F#L	4.r	4.r
8G	.	.
8EJ	.	.
!!LO:LB:g=original
=37	=37	=37
4.D#	8r	8bbL
.	8F#L	8aa
.	8G#J	8gg#J
4.r	8AL	8ff#L
.	8B	8ee
.	8c#J	8dd#J
4.r	8BL	8eeL
.	8c#	8dd#
.	8AJ	[8ff#J
=38	=38	=38
4.E	4.G#	16ff#LL]
.	.	16ee
.	.	16dd#
.	.	16cc#J
.	.	[8gg#J
4.F#	4.A	16gg#LL]
.	.	16ff#
.	.	16ee
.	.	16dd#J
.	.	[8aaJ
4.G#	4.B	16aaLL]
.	.	16gg#
.	.	16ff#
.	.	16eeJ
.	.	[8bbJ
=39	=39	=39
4.A	8c#L	8bbL]
.	8d#	8b
.	8eJ	8cc#J
*	*clefG2	*
4.r	8f#L	8dd#L
.	8g#	8ee
.	8aJ	8ff#J
4.r	8g#L	8eeL
.	8a	8ff#
.	8f#J	8dd#J
=40	=40	=40
8r	4.g#	4.ee
8BL	.	.
8F#J	.	.
8G#L	4.r	4.r
8D#	.	.
8EJ	.	.
8AA#XL	8c#	4f#
8BB	4d#	.
8BBBJ	.	8a
=41	=41	=41
[2.EE	[2.e	[2.g#
4.EE];	4.e];	4.g#];
*	*v	*v
==	==
*-	*-
!!!system-decoration: [(s1,s2,s3)]
!!!URL-pdf: https://vmirror.imslp.org/files/imglnks/usimg/5/55/IMSLP396136-PMLP03268-Bach,_Johann_Sebastian-Werke_Breitkopf_Band_3_02_BWV_787-801.pdf#page=8 Bach-Gesellschaft Ausgabe, Band 3 (pp.19-42) Leipzig: Breitkopf und Härtel, 1853. Plate B.W. III.
!!!URL-youtube: https://www.youtube.com/watch?v=Lao8x1bHWEg&t=612s Malinowski
!!!SMS: Bach-Gesellschaft Ausgabe, Band 3 (pp.19-42) Leipzig: Breitkopf und Härtel, 1853. Plate B.W. III.
!!!ONB: Open-score format
!!!ENC: Craig Stuart Sapp
!!!END: 2024/03/28
!!!EED: Craig Stuart Sapp
!!!EEV: 2024/03/28
!!!title: @{OTL} (@{SCA})
!!!filter-keyboard: sab2gs
!!!voices: 3
!!!AGN: polyphony
!!!AST: baroque
!!!AMT: compound triple
!!!AIN: cemb; clavi
